packages/axiom-components/src/Pictogram/svgs/date-&-time.svg

<svg height="16" viewBox="0 0 16 16" width="16" xmlns="http://www.w3.org/2000/svg"><g fill-rule="evenodd"><path d="m8 14.5c3.5898509 0 6.5-2.9101491 6.5-6.5 0-3.58985087-2.9101491-6.5-6.5-6.5-3.58985087 0-6.5 2.91014913-6.5 6.5 0 3.5898509 2.91014913 6.5 6.5 6.5zm0 1.5c-4.418278 0-8-3.581722-8-8s3.581722-8 8-8 8 3.581722 8 8-3.581722 8-8 8z" fill-opacity=".75" fill-rule="nonzero"/><path d="m8.75 7.65938009v-3.91762562c0-.41417545-.33578644-.74175447-.75-.74175447-.41710138 0-.75.33209479-.75.74175447v4.01649106c0 .10226731.02047237.19925497.05754277.28733518-.0022484.21927397.09158014.43838984.27418554.59161397l2.66676559 2.23768202c.3304167.2772526.7975677.2309007 1.063819-.0864053.2681076-.3195182.2216421-.79307571-.0996376-1.06266136z"/></g></svg>

<?xml version="1.0" encoding="UTF-8"?>
<svg width="16px" height="16px" viewBox="0 0 16 16" version="1.1" xmlns="http://www.w3.org/2000/svg" xmlns:xlink="http://www.w3.org/1999/xlink">
    <!-- Generator: Sketch 46.2 (44496) - http://www.bohemiancoding.com/sketch -->
    <title>Date &amp; Time</title>
    <desc>Created with Sketch.</desc>
    <defs></defs>
    <g id="Axiom-Icons" stroke="none" stroke-width="1" fill="none" fill-rule="evenodd">
        <g id="Date-&amp;-Time" fill="#000000">
            <path d="M8,14.5 C11.5898509,14.5 14.5,11.5898509 14.5,8 C14.5,4.41014913 11.5898509,1.5 8,1.5 C4.41014913,1.5 1.5,4.41014913 1.5,8 C1.5,11.5898509 4.41014913,14.5 8,14.5 Z M8,16 C3.581722,16 0,12.418278 0,8 C0,3.581722 3.581722,0 8,0 C12.418278,0 16,3.581722 16,8 C16,12.418278 12.418278,16 8,16 Z" id="Oval" fill-opacity="0.75" fill-rule="nonzero"></path>
            <path d="M8.75,7.65938009 L8.75,3.74175447 C8.75,3.32757902 8.41421356,3 8,3 C7.58289862,3 7.25,3.33209479 7.25,3.74175447 L7.25,7.75824553 C7.25,7.86051284 7.27047237,7.9575005 7.30754277,8.04558071 C7.30529437,8.26485468 7.39912291,8.48397055 7.58172831,8.63719468 L10.2484939,10.8748767 C10.5789106,11.1521293 11.0460616,11.1057774 11.3123129,10.7884714 C11.5804205,10.4689532 11.533955,9.99539569 11.2126753,9.72581004 L8.75,7.65938009 Z" id="Shape"></path>
        </g>
    </g>
</svg>
